icons/svg/shaders/h_wetland_saltern.svg

<svg width="64" height="64" viewBox="0 0 64 64" fill="none" xmlns="http://www.w3.org/2000/svg">
<g clip-path="url(#clip0)">
<path opacity="0.373" d="M64 0H0V64H64V0Z" fill="#ACD8F3"/>
<path d="M37 22H22V23H37V22Z" fill="#2F91EA"/>
<path d="M47 14H32V15H47V14Z" fill="#2F91EA"/>
<path d="M33 53H18V54H33V53Z" fill="#2F91EA"/>
<path d="M22 3H8V4H22V3Z" fill="#2F91EA"/>
<path d="M26 43H11V44H26V43Z" fill="#2F91EA"/>
<path d="M10 14H1V15H10V14Z" fill="#2F91EA"/>
<path d="M63 25H58V26H63V25Z" fill="#2F91EA"/>
<path d="M41 33H27V34H41V33Z" fill="#2F91EA"/>
<path d="M63 38H53V39H63V38Z" fill="#2F91EA"/>
<path d="M42 47H25V48H42V47Z" fill="#2F91EA"/>
<path d="M64 49H58V50H64V49Z" fill="#2F91EA"/>
<path d="M62 5H47V6H62V5Z" fill="#2F91EA"/>
<path d="M58 16H50V17H58V16Z" fill="#2F91EA"/>
<path d="M56 59H48V60H56V59Z" fill="#2F91EA"/>
<path d="M11 38H2V39H11V38Z" fill="#2F91EA"/>
<path d="M46 1H39V2H46V1Z" fill="#2F91EA"/>
<path d="M18 61H9V62H18V61Z" fill="#2F91EA"/>
<path d="M55 22H44V23H55V22Z" fill="#2F91EA"/>
<path d="M7 49H0V50H7V49Z" fill="#2F91EA"/>
<path d="M62 52H57V53H62V52Z" fill="#2F91EA"/>
<path d="M30 27H21V28H30V27Z" fill="#2F91EA"/>
<path d="M5.73724 61.146L1.75525 57.164L7.85114 51.0681L13.7504 56.9674L9.37509 61.3427" stroke="#2F91EA"/>
<path d="M47.4219 49.1656L43.4399 45.1837L49.5358 39.0878L55.4351 44.987L51.0598 49.3623" stroke="#2F91EA"/>
<path d="M12.3663 25.7952L8.38428 21.8132L14.4802 15.7173L20.3794 21.6165L16.0042 25.9918" stroke="#2F91EA"/>
<path d="M25.5584 43.36L22.7103 40.5266L27.0703 36.1888L31.2897 40.3866L28.1603 43.5" stroke="#2F91EA"/>
<path d="M30.2256 10.1787L26.7211 6.68033L32.0861 1.32471L37.278 6.50754L33.4273 10.3515" stroke="#2F91EA"/>
<path d="M57.5886 16.363L54.8002 13.59L59.0688 9.34485L63.1998 13.4531L60.136 16.5" stroke="#2F91EA"/>
<path d="M38.8154 63.4816L36.6425 61.332L39.9689 58.0413L43.188 61.2258L40.8005 63.5877" stroke="#2F91EA"/>
</g>
<defs>
<clipPath id="clip0">
<path d="M0 0H64V64H0V0Z" fill="white"/>
</clipPath>
</defs>
</svg>

<svg xmlns="http://www.w3.org/2000/svg" width="64" height="64" viewBox="0 0 64 64" fill="none" version="1.1" id="svg67"><path style="fill:#d1e7ff;fill-opacity:1" id="path4" d="M37 22H22v1h15z"/><path style="fill:#d1e7ff;fill-opacity:1" id="path6" d="M47 14H32v1h15z"/><path style="fill:#d1e7ff;fill-opacity:1" id="path8" d="M33 53H18v1h15z"/><path style="fill:#d1e7ff;fill-opacity:1" id="path10" d="M22 3H8v1h14z"/><path style="fill:#d1e7ff;fill-opacity:1" id="path12" d="M26 43H11v1h15z"/><path style="fill:#d1e7ff;fill-opacity:1" id="path14" d="M10 14H1v1h9z"/><path style="fill:#d1e7ff;fill-opacity:1" id="path16" d="M63 25h-5v1h5z"/><path style="fill:#d1e7ff;fill-opacity:1" id="path18" d="M41 33H27v1h14z"/><path style="fill:#d1e7ff;fill-opacity:1" id="path20" d="M63 38H53v1h10z"/><path style="fill:#d1e7ff;fill-opacity:1" id="path22" d="M42 47H25v1h17z"/><path style="fill:#d1e7ff;fill-opacity:1" id="path24" d="M64 49h-6v1h6z"/><path style="fill:#d1e7ff;fill-opacity:1" id="path26" d="M62 5H47v1h15z"/><path style="fill:#d1e7ff;fill-opacity:1" id="path28" d="M58 16h-8v1h8z"/><path style="fill:#d1e7ff;fill-opacity:1" id="path30" d="M56 59h-8v1h8z"/><path style="fill:#d1e7ff;fill-opacity:1" id="path32" d="M11 38H2v1h9z"/><path style="fill:#d1e7ff;fill-opacity:1" id="path34" d="M46 1h-7v1h7z"/><path style="fill:#d1e7ff;fill-opacity:1" id="path36" d="M18 61H9v1h9z"/><path style="fill:#d1e7ff;fill-opacity:1" id="path38" d="M55 22H44v1h11z"/><path style="fill:#d1e7ff;fill-opacity:1" id="path40" d="M7 49H0v1h7z"/><path style="fill:#d1e7ff;fill-opacity:1" id="path42" d="M62 52h-5v1h5z"/><path style="fill:#d1e7ff;fill-opacity:1" id="path44" d="M30 27h-9v1h9z"/><path style="stroke:#d1e7ff;stroke-opacity:1" id="path46" d="M5.74 61.15l-3.98-3.99 6.1-6.1 5.89 5.9-4.37 4.38"/><path style="stroke:#d1e7ff;stroke-opacity:1" id="path48" d="M47.42 49.17l-3.98-3.99 6.1-6.1 5.9 5.9-4.38 4.38"/><path style="stroke:#d1e7ff;stroke-opacity:1" id="path50" d="M12.37 25.8l-3.99-4 6.1-6.1 5.9 5.9L16 26"/><path style="stroke:#d1e7ff;stroke-opacity:1" id="path52" d="M25.56 43.36l-2.85-2.83 4.36-4.34 4.22 4.2-3.13 3.11"/><path style="stroke:#d1e7ff;stroke-opacity:1" id="path54" d="M30.23 10.18l-3.5-3.5 5.36-5.36 5.19 5.19-3.85 3.84"/><path style="stroke:#d1e7ff;stroke-opacity:1" id="path56" d="M57.59 16.36L54.8 13.6l4.27-4.25 4.13 4.11-3.06 3.05"/><path style="stroke:#d1e7ff;stroke-opacity:1" id="path58" d="M38.82 63.48l-2.18-2.15 3.33-3.29 3.22 3.19-2.39 2.36"/><defs id="defs65"><clipPath id="clip0"><path d="M0 0h64v64H0V0z" fill="#fff" id="path62"/></clipPath></defs></svg>
